resources/haticons/SVG/calendar11.svg

<svg height="24" viewBox="0 0 22 24" width="22" xmlns="http://www.w3.org/2000/svg"><path d="m1.714 22.5h3.857v-3.857h-3.857zm4.715 0h4.286v-3.857h-4.286zm-4.715-4.714h3.857v-4.286h-3.857zm4.715 0h4.286v-4.286h-4.286zm-4.715-5.143h3.857v-3.857h-3.857zm9.857 9.857h4.286v-3.857h-4.286zm-5.142-9.857h4.286v-3.857h-4.286zm10.285 9.857h3.857v-3.857h-3.857zm-5.143-4.714h4.286v-4.286h-4.286zm-4.714-11.572v-3.857c0-.228-.201-.429-.429-.429h-.857c-.228 0-.429.201-.429.429v3.857c0 .228.201.429.429.429h.857c.228 0 .429-.201.429-.429zm9.857 11.572h3.857v-4.286h-3.857zm-5.143-5.143h4.286v-3.857h-4.286zm5.143 0h3.857v-3.857h-3.857zm.429-6.429v-3.857c0-.228-.201-.429-.429-.429h-.857c-.228 0-.429.201-.429.429v3.857c0 .228.201.429.429.429h.857c.228 0 .429-.201.429-.429zm5.143-.857v17.143c0 .938-.777 1.714-1.714 1.714h-18.857c-.938 0-1.714-.777-1.714-1.714v-17.143c0-.938.777-1.714 1.714-1.714h1.714v-1.286c0-1.179.964-2.143 2.143-2.143h.857c1.179 0 2.143.964 2.143 2.143v1.286h5.143v-1.286c0-1.179.964-2.143 2.143-2.143h.857c1.179 0 2.143.964 2.143 2.143v1.286h1.714c.938 0 1.714.777 1.714 1.714z"/></svg>

<svg height="24" width="22" xmlns="http://www.w3.org/2000/svg"><path d="M1.714 22.5h3.857v-3.857H1.714zm4.715 0h4.286v-3.857H6.429zm-4.715-4.714h3.857V13.5H1.714zm4.715 0h4.286V13.5H6.429zm-4.715-5.143h3.857V8.786H1.714zm9.857 9.857h4.286v-3.857h-4.286zm-5.142-9.857h4.286V8.786H6.429zM16.714 22.5h3.857v-3.857h-3.857zm-5.143-4.714h4.286V13.5h-4.286zM6.857 6.214V2.357a.441.441 0 0 0-.429-.429h-.857a.441.441 0 0 0-.429.429v3.857c0 .228.201.429.429.429h.857a.441.441 0 0 0 .429-.429zm9.857 11.572h3.857V13.5h-3.857zm-5.143-5.143h4.286V8.786h-4.286zm5.143 0h3.857V8.786h-3.857zm.429-6.429V2.357a.441.441 0 0 0-.429-.429h-.857a.441.441 0 0 0-.429.429v3.857c0 .228.201.429.429.429h.857a.441.441 0 0 0 .429-.429zm5.143-.857V22.5c0 .938-.777 1.714-1.714 1.714H1.715A1.726 1.726 0 0 1 .001 22.5V5.357c0-.938.777-1.714 1.714-1.714h1.714V2.357c0-1.179.964-2.143 2.143-2.143h.857c1.179 0 2.143.964 2.143 2.143v1.286h5.143V2.357c0-1.179.964-2.143 2.143-2.143h.857c1.179 0 2.143.964 2.143 2.143v1.286h1.714c.938 0 1.714.777 1.714 1.714z"/></svg>
